X:1
T:Sea to Sea
M:6/8
L:1/8
Q:80
C:S.S. Kelly 1980
S:Seconds
K:HP
[| e | \
{g}c{d}A{d}c{g}cec | \
{g}ded{gcd}c2{g}c | \
{g}c{d}A{d}c{g}f{g}Bd |
{g}c{d}A{d}c{Gdc}d2c | \
{g}c{d}A{d}c{g}f{g}Bd | \
{g}c{d}A{d}c{Gdc}d2{g}c |
{Gdc}d3/2e/2{g}f{g}c{d}A{d}c | \
{g}d/2e3/2d{gcd}c2|] [ | \
c |
{g}c{d}A{d}c{g}fef | \
{g}dce{g}c2{e}A | \
{g}c{G}cf{g}cec |
{g}edc{Gdc}d2c | \
{g}c{d}A{d}c{g}cec | \
{g}f{g}Bd{g}c2{G}c |
{Gdc}d3/2e/2{g}f{g}c{d}A{d}c | \
{g}d/2e3/2d{gcd}c2|]
